X:1
T:In the foremer treatyse
T:Christopher Tye
T:Source : The Actes of the Apostles---Chapter I---1553. Editor : André Vierendeels ( 09/01/17).
T:In the foremer treatyse
T:©
T:©
T:©
C:Christopher Tye
Z:©
%%score [ 1 [ 2 3 ] 4 ]
L:1/8
Q:1/4=96
M:4/4
K:F
V:1 treble nm="Soprano" snm="S"
V:2 treble-8 nm="Tenor 1" snm="T 1"
V:3 treble-8 nm="Tenor 2" snm="T 2"
V:4 bass nm="Bass" snm="B"
V:1
 z2 G2 G2 G2 | ^F2 F2 G2 B2 | A2 A2 A3 G | A3 G ^F4 | z4 z2 A2 | G2 B2 A2 A2 | d3 d c2 B2 | %7
w: In the fore-|mer treat- yse to|thee dere frend The-|o- phi- lus:|I|have writ- ten the|ve- ri- te, of|
 A2 G2 G2 ^F2 | G4 z2 G2 | G3 G ^F2 G2 | A3 A ^F2 F2 | GA B2 B2 A2 | B8 | z4 z2 G2 | d3 d c2 dc | %15
w: the Lord Christ Je-|sus, whiche|be to do and|eke to teache be-|gan _ un- tyll the|daye:|in|whiche the sprite up hym|
 BA G2 x2 B2 | A2 G2 G2 F2 | G8 |] %18
w: _ _ dyd to|dwell a- bove for|aye.|
V:2
 z2 d2 _e2 e2 | d2 d2 _e2 f2 | f2 f2 f3 d | f2 e2 d4 | z4 d2 c2 | _e2 dd f3 f | f6 d2 | %7
w: In the fore-|mer treat- yse to|thee dere frend The-|o- phi- lus:|I have|writ- ten the ve- ri-|te of|
 f2 _e2 d3 c | =B4 z2 d2 | d2 c2 d2 d2 | f2 c2 d2 d2 | _e2 f2 f3 e | d8 | z2 d2 g3 g | %14
w: the Lord Christ Je-|sus, whiche|be to do and|eke to teache be-|gan un- tyll the|daye:|in whiche the|
 f2 g2 _e2 d2- | dc _ec d2 d2 | f2 c2 d2 d2 | =B8 |] %18
w: sprite up hym dyd|_ _ teach,e, _ _ to|dwell a- bove for|aye|
V:3
 z2 B2 B2 c2 | A2 A2 c2 d2 | c2 d2 c2 d2 | d2 ^c2 d2 z2 | A2 G2 B2 AA | B3 B c4 | z2 d2 A2 B2 | %7
w: In the fore-|mer traet- yse to|these dere frend The-|o- phi- lus:|I have writ- ten the|ve- ri- te,|of the Lord-|
 c3 B AG A2 | G4 z2 B2 | B2 G2 A2 B2 | c2 A2 A2 A2 | c2 d2 c2 c2 | B4 z2 G2 | d3 c B2 _e2 | %14
w: Christ _ Je- * *|sus, whiche|be to do and|eke to teache be-|gan un- tyll the|daye: in|whiche the sprite up|
 d cBA G2 B2 | G2 G2 A2 B2 | c2 G2 B2 A2 | G8 |] %18
w: hym dyd _ _ teache, up|hym dyd teache, to|dwell a- bove for|aye.|
V:4
 z2 G,2 _E,2 C,2 | D,2 D,2 C,2 B,,2 | F,2 D,2 F,2 B,2 | A,2 A,2 D,2 D,2 | C,2 _E,2 D,2 F,2 | %5
w: In the fore-|mer treat- yse to|these dere frend The-|o- phi- lus: I|have writ- ten the|
 _E,2 G,2 F,2 F,2 | B,3 B, F,2 G,2 | F,2 C,2 D,2 D,2 | G,,4 z2 G,,2 | B,,2 _E,2 D,2 G,2 | %10
w: ve- ri- te, the|ve- ri- te of|the Lord Christ Je-|sus, whiche|be to do and|
 F,3 F, D,2 D,2 | C,2 B,,2 F,2 F,2 | z8 | F,2 B, A, G,F, _E,2 |"^#" B,,2 B,,2 C,2 B,,2 | %15
w: eke to teache, be-|gan un- tyll the||sprite up hym _ dyd teach|up hym dyd teach,|
 _E,4 D,2 G,2 | F,2 _E,2 D,2 D,2 | G,,8 |] %18
w: _ teach, to|dwell a- bove for|aye.|

